X: 17
T: Out On The Ocean
R: jig
M: 6/8
L: 1/8
K: Gmaj
"G"D2B BAG|BdB ABA|"C"GED G2A|"D"~B2B AGE|
"G"D2B BAG|BdB ABA|"C"GED G2A|"D"BGF "G"G3:|
|:"Em"e2e edB|e2e edB|"Bm7"d3 def|"C"gfe dBA|
"G"G2A B2d|"C"~e3 dBA|"G"GED G2A|"D"BGF "G"G3:|